X: 251
T: Ha-Shem Melech 4/4 version
T: 16-bar version
M: 4/4
L: 1/8
N: In the original, the B part is 2 bars shorter
Z: 2009 John Chambers <jc:trillian.mit.edu>
S: printed MS of unknown origin
K: Am
A (GF) |\
"Am"(A2 E)E- EE (DC) | "E7"(E2 B,)B,- B,E (FE) | "E7"(^G2 E)E- ED (CB,) |
w: Ha-Shem* me-*lech* Ha-Shem* ma-*lach* Ha-Shem* yim-*loch* l'-o-lom
"Am"(C2 A,)A,- A,A (GF) | (A2 E)E- EE (DC) | "E7"(E2 B,)B,- B,E (FE) |
w: va-*ed.* Ha-Shem* me-*lech* Ha-Shem* ma-*lach* Ha-Shem*
"E7"^G3 G- GB/B/ A^G | "Am"A4 z |[| c (BA) | "Dm"d3 d- dd (cB) |
w: yim-loch* l'-o-lom va-ed. Ha-Shem* me-lech* Ha-Shem*
| "Am"(c2 A)A- AA (AA) | "Dm"d3 d- dd (cB) | "Am"(c2 A)A- AA (AA) |
w: ma-*lach* Ha-Shem* me-lech* Ha-Shem* ma-*lach* Ha-Shem*
| "Dm"d3 d- dd (cB) | "Am"(c2 A)A- Ac (BA) | "E7"B3 ^G- GB/B/ A^G | "Am"A4 z |]
w:  me-lech* Ha-Shem* ma-*lach* Ha-Shem* yim-loch* l'-o-lom va-ed.
%
W: The Lord is King, the Lord was King; the Lord will be King forever and ever.
